static/img/kroki/e4228b9306996c63f3808d2b16134f61.svg

<?xml version="1.0" encoding="us-ascii" standalone="no"?><svg xmlns="http://www.w3.org/2000/svg" xmlns:xlink="http://www.w3.org/1999/xlink" contentStyleType="text/css" height="374px" preserveAspectRatio="none" style="width:378px;height:374px;" version="1.1" viewBox="0 0 378 374" width="378px" zoomAndPan="magnify"><defs/><g><!--class azure_network_p2_s_vpn_gateway--><g id="elem_azure_network_p2_s_vpn_gateway"><rect codeLine="23" fill="#3D176E" height="39.7891" id="azure_network_p2_s_vpn_gateway" rx="2.5" ry="2.5" style="stroke:#000D19;stroke-width:0.5;" width="335" x="7" y="328.58"/><ellipse cx="22" cy="348.4745" fill="#ADD1B2" rx="11" ry="11" style="stroke:#181818;stroke-width:1.0;"/><path d="M24.9688,354.1152 Q24.3906,354.412 23.75,354.5527 Q23.1094,354.7089 22.4063,354.7089 Q19.9063,354.7089 18.5781,353.0683 Q17.2656,351.412 17.2656,348.287 Q17.2656,345.162 18.5781,343.5058 Q19.9063,341.8495 22.4063,341.8495 Q23.1094,341.8495 23.75,342.0058 Q24.4063,342.162 24.9688,342.4589 L24.9688,345.1777 Q24.3438,344.5995 23.75,344.3339 Q23.1563,344.0527 22.5313,344.0527 Q21.1875,344.0527 20.5,345.1308 Q19.8125,346.1933 19.8125,348.287 Q19.8125,350.3808 20.5,351.4589 Q21.1875,352.5214 22.5313,352.5214 Q23.1563,352.5214 23.75,352.2558 Q24.3438,351.9745 24.9688,351.3964 L24.9688,354.1152 Z " fill="#000000"/><text fill="#D9B8FF" font-family="Helvetica" font-size="17" lengthAdjust="spacing" textLength="293" x="41" y="354.3598">azure_network_p2_s_vpn_gateway</text></g><!--class gateway--><g id="elem_gateway"><rect codeLine="26" fill="#3D176E" height="39.7891" id="gateway" rx="2.5" ry="2.5" style="stroke:#000D19;stroke-width:0.5;" width="114" x="22.5" y="167.79"/><ellipse cx="37.5" cy="187.6845" fill="#ADD1B2" rx="11" ry="11" style="stroke:#181818;stroke-width:1.0;"/><path d="M40.4688,193.3252 Q39.8906,193.622 39.25,193.7627 Q38.6094,193.9189 37.9063,193.9189 Q35.4063,193.9189 34.0781,192.2783 Q32.7656,190.622 32.7656,187.497 Q32.7656,184.372 34.0781,182.7158 Q35.4063,181.0595 37.9063,181.0595 Q38.6094,181.0595 39.25,181.2158 Q39.9063,181.372 40.4688,181.6689 L40.4688,184.3877 Q39.8438,183.8095 39.25,183.5439 Q38.6563,183.2627 38.0313,183.2627 Q36.6875,183.2627 36,184.3408 Q35.3125,185.4033 35.3125,187.497 Q35.3125,189.5908 36,190.6689 Q36.6875,191.7314 38.0313,191.7314 Q38.6563,191.7314 39.25,191.4658 Q39.8438,191.1845 40.4688,190.6064 L40.4688,193.3252 Z " fill="#000000"/><text fill="#D9B8FF" font-family="Helvetica" font-size="17" lengthAdjust="spacing" textLength="72" x="56.5" y="193.5698">gateway</text></g><!--class microsoft_resource--><g id="elem_microsoft_resource"><rect codeLine="29" fill="#3D176E" height="39.7891" id="microsoft_resource" rx="2.5" ry="2.5" style="stroke:#000D19;stroke-width:0.5;" width="200" x="171.5" y="167.79"/><ellipse cx="186.5" cy="187.6845" fill="#ADD1B2" rx="11" ry="11" style="stroke:#181818;stroke-width:1.0;"/><path d="M189.4688,193.3252 Q188.8906,193.622 188.25,193.7627 Q187.6094,193.9189 186.9063,193.9189 Q184.4063,193.9189 183.0781,192.2783 Q181.7656,190.622 181.7656,187.497 Q181.7656,184.372 183.0781,182.7158 Q184.4063,181.0595 186.9063,181.0595 Q187.6094,181.0595 188.25,181.2158 Q188.9063,181.372 189.4688,181.6689 L189.4688,184.3877 Q188.8438,183.8095 188.25,183.5439 Q187.6563,183.2627 187.0313,183.2627 Q185.6875,183.2627 185,184.3408 Q184.3125,185.4033 184.3125,187.497 Q184.3125,189.5908 185,190.6689 Q185.6875,191.7314 187.0313,191.7314 Q187.6563,191.7314 188.25,191.4658 Q188.8438,191.1845 189.4688,190.6064 L189.4688,193.3252 Z " fill="#000000"/><text fill="#D9B8FF" font-family="Helvetica" font-size="17" lengthAdjust="spacing" textLength="158" x="205.5" y="193.5698">microsoft_resource</text></g><!--class resource--><g id="elem_resource"><rect codeLine="32" fill="#3D176E" height="39.7891" id="resource" rx="2.5" ry="2.5" style="stroke:#000D19;stroke-width:0.5;" width="113" x="118" y="7"/><ellipse cx="133" cy="26.8945" fill="#ADD1B2" rx="11" ry="11" style="stroke:#181818;stroke-width:1.0;"/><path d="M135.9688,32.5352 Q135.3906,32.832 134.75,32.9727 Q134.1094,33.1289 133.4063,33.1289 Q130.9063,33.1289 129.5781,31.4883 Q128.2656,29.832 128.2656,26.707 Q128.2656,23.582 129.5781,21.9258 Q130.9063,20.2695 133.4063,20.2695 Q134.1094,20.2695 134.75,20.4258 Q135.4063,20.582 135.9688,20.8789 L135.9688,23.5977 Q135.3438,23.0195 134.75,22.7539 Q134.1563,22.4727 133.5313,22.4727 Q132.1875,22.4727 131.5,23.5508 Q130.8125,24.6133 130.8125,26.707 Q130.8125,28.8008 131.5,29.8789 Q132.1875,30.9414 133.5313,30.9414 Q134.1563,30.9414 134.75,30.6758 Q135.3438,30.3945 135.9688,29.8164 L135.9688,32.5352 Z " fill="#000000"/><text fill="#D9B8FF" font-family="Helvetica" font-size="17" lengthAdjust="spacing" textLength="71" x="152" y="32.7798">resource</text></g><!--reverse link gateway to azure_network_p2_s_vpn_gateway--><g id="link_gateway_azure_network_p2_s_vpn_gateway"><path codeLine="35" d="M100.2016,223.2865 C118.4616,253.8065 144.72,297.69 163,328.25 " fill="none" id="gateway-backto-azure_network_p2_s_vpn_gateway" style="stroke:#FFAF37;stroke-width:2.0;"/><polygon fill="none" points="90.96,207.84,95.0527,226.367,105.3504,220.2059,90.96,207.84" style="stroke:#FFAF37;stroke-width:2.0;"/></g><!--reverse link microsoft_resource to azure_network_p2_s_vpn_gateway--><g id="link_microsoft_resource_azure_network_p2_s_vpn_gateway"><path codeLine="36" d="M250.418,223.2016 C231.778,253.7216 204.91,297.69 186.24,328.25 " fill="none" id="microsoft_resource-backto-azure_network_p2_s_vpn_gateway" style="stroke:#FFAF37;stroke-width:2.0;"/><polygon fill="none" points="259.8,207.84,245.2975,220.0742,255.5385,226.3289,259.8,207.84" style="stroke:#FFAF37;stroke-width:2.0;"/></g><!--reverse link resource to gateway--><g id="link_resource_gateway"><path codeLine="37" d="M153.7984,62.4965 C135.5384,93.0165 109.28,136.9 91,167.46 " fill="none" id="resource-backto-gateway" style="stroke:#FFAF37;stroke-width:2.0;"/><polygon fill="none" points="163.04,47.05,148.6496,59.4159,158.9473,65.577,163.04,47.05" style="stroke:#FFAF37;stroke-width:2.0;"/></g><!--reverse link resource to microsoft_resource--><g id="link_resource_microsoft_resource"><path codeLine="38" d="M195.582,62.4116 C214.222,92.9316 241.09,136.9 259.76,167.46 " fill="none" id="resource-backto-microsoft_resource" style="stroke:#FFAF37;stroke-width:2.0;"/><polygon fill="none" points="186.2,47.05,190.4615,65.5389,200.7025,59.2842,186.2,47.05" style="stroke:#FFAF37;stroke-width:2.0;"/></g><!--SRC=[ZP1FJy904CNl_HIRS2RXJnH8l229qGinuhqPkhEmQRlJp4vfGFtkYe1PsW9Ut_lDcpUpjXeLveLiLOxv4jb7FhMk08PSJPcfcb56h3h6W1cEwkOJERa9p257zOpP1iKcK2VUrpP97Ngl1e7r24cwOYgTFiGBW_C_5Ze9g5a6taz5s2vBmQ2CdYp7njJ9UcXdgFkZUsnWn1hvYFHwFTsVr96RgwxU_KSix0vLFtpQd0GRDHihVgchBVT4KB9nwCc_sF4LjBPkfUu2xUtGYHtocRvOWwPgJnl8VBZ62pAIR0kSDQx2oLYRKIlySWcEalth5EnAnjYXLCHfN0nY7syA5wz0i8Aj-eYYhoFP8kKsOV9a96RqL7A2eNkkdSOVFhlTxesrKKlml-Pgz0MvcHvz0m00]--></g></svg>

<svg xmlns="http://www.w3.org/2000/svg" width="378" height="374" viewBox="0 0 378 374"><rect width="335" height="39.789" x="7" y="328.58" fill="#3D176E" rx="2.5" ry="2.5" style="stroke:#000d19;stroke-width:.5"/><circle cx="22" cy="348.474" r="11" fill="#ADD1B2" style="stroke:#181818;stroke-width:1"/><path d="M24.969 354.115q-.578.297-1.219.438-.64.156-1.344.156-2.5 0-3.828-1.64-1.312-1.657-1.312-4.782t1.312-4.781q1.328-1.656 3.828-1.656.703 0 1.344.156.656.156 1.219.453v2.719q-.625-.579-1.219-.844-.594-.281-1.219-.281-1.343 0-2.031 1.078-.687 1.062-.687 3.156t.687 3.172q.688 1.062 2.031 1.062.625 0 1.219-.265.594-.281 1.219-.86z"/><text x="41" y="354.36" fill="#D9B8FF" font-family="Helvetica" font-size="17" textLength="293">azure_network_p2_s_vpn_gateway</text><rect width="114" height="39.789" x="22.5" y="167.79" fill="#3D176E" rx="2.5" ry="2.5" style="stroke:#000d19;stroke-width:.5"/><circle cx="37.5" cy="187.685" r="11" fill="#ADD1B2" style="stroke:#181818;stroke-width:1"/><path d="M40.469 193.325q-.578.297-1.219.438-.64.156-1.344.156-2.5 0-3.828-1.64-1.312-1.657-1.312-4.782t1.312-4.781q1.328-1.656 3.828-1.656.703 0 1.344.156.656.156 1.219.453v2.719q-.625-.578-1.219-.844-.594-.281-1.219-.281-1.343 0-2.031 1.078-.687 1.062-.687 3.156t.687 3.172q.688 1.062 2.031 1.062.625 0 1.219-.265.594-.281 1.219-.86z"/><text x="56.5" y="193.57" fill="#D9B8FF" font-family="Helvetica" font-size="17" textLength="72">gateway</text><rect width="200" height="39.789" x="171.5" y="167.79" fill="#3D176E" rx="2.5" ry="2.5" style="stroke:#000d19;stroke-width:.5"/><circle cx="186.5" cy="187.685" r="11" fill="#ADD1B2" style="stroke:#181818;stroke-width:1"/><path d="M189.469 193.325q-.578.297-1.219.438-.64.156-1.344.156-2.5 0-3.828-1.64-1.312-1.657-1.312-4.782t1.312-4.781q1.328-1.656 3.828-1.656.703 0 1.344.156.656.156 1.219.453v2.719q-.625-.578-1.219-.844-.594-.281-1.219-.281-1.344 0-2.031 1.078-.687 1.062-.687 3.156t.687 3.172q.688 1.062 2.031 1.062.625 0 1.219-.265.594-.281 1.219-.86z"/><text x="205.5" y="193.57" fill="#D9B8FF" font-family="Helvetica" font-size="17" textLength="158">microsoft_resource</text><rect width="113" height="39.789" x="118" y="7" fill="#3D176E" rx="2.5" ry="2.5" style="stroke:#000d19;stroke-width:.5"/><circle cx="133" cy="26.895" r="11" fill="#ADD1B2" style="stroke:#181818;stroke-width:1"/><path d="M135.969 32.535q-.578.297-1.219.438-.64.156-1.344.156-2.5 0-3.828-1.64-1.312-1.657-1.312-4.782t1.312-4.781q1.328-1.656 3.828-1.656.703 0 1.344.156.656.156 1.219.453v2.719q-.625-.578-1.219-.844-.594-.281-1.219-.281-1.344 0-2.031 1.078-.687 1.062-.687 3.156t.687 3.172q.688 1.062 2.031 1.062.625 0 1.219-.265.594-.281 1.219-.86z"/><text x="152" y="32.78" fill="#D9B8FF" font-family="Helvetica" font-size="17" textLength="71">resource</text><path fill="none" d="M100.202 223.287c18.26 30.52 44.518 74.403 62.798 104.963M90.96 207.84l4.093 18.527 10.297-6.161zm159.458 15.362c-18.64 30.52-45.508 74.488-64.178 105.048m73.56-120.41-14.502 12.234 10.24 6.255zM153.798 62.497C135.538 93.017 109.28 136.9 91 167.46m72.04-120.41-14.39 12.366 10.297 6.161zm32.542 15.362c18.64 30.52 45.508 74.488 64.178 105.048M186.2 47.05l4.262 18.489 10.24-6.255z" style="stroke:#ffaf37;stroke-width:2"/></svg>
